source/assets/images/clouds.svg

<svg xmlns="http://www.w3.org/2000/svg" width="350" height="80"><path d="M239.987 79.497l.013.503.013-.499-.026-.004z" fill="none"/><path opacity=".2" fill="#fff" d="M64.017 48.013c3.649-4.857 9.44-8.013 15.983-8.013 3.402 0 6.602.855 9.407 2.353 5.533-10.353 13.269-19.35 22.593-26.354-7.298-9.714-18.914-15.999-32-15.999-18.661 0-34.336 12.779-38.754 30.063-.415-.026-.826-.063-1.246-.063-9.311 0-17.112 6.371-19.341 14.986 5.733-3.174 12.324-4.986 19.341-4.986 9.013 0 17.329 2.983 24.017 8.013z"/><path opacity=".2" fill="#fff" d="M227.527 37.127c4.507-4.407 10.671-7.127 17.473-7.127 6.373 0 12.185 2.388 16.6 6.313 9.261-7.091 20.835-11.313 33.4-11.313 12.851 0 24.663 4.42 34.026 11.805-3.69-15.375-17.519-26.805-34.026-26.805-11.834 0-22.288 5.879-28.623 14.869-4.71-3.075-10.332-4.869-16.377-4.869-4.921 0-9.56 1.192-13.658 3.292-6.33-13.745-20.217-23.292-36.342-23.292-5.859 0-11.418 1.27-16.433 3.534 18.348 5.648 33.864 17.725 43.96 33.593z"/><path opacity=".5" fill="#fff" d="M329.026 36.805c-9.363-7.385-21.175-11.805-34.026-11.805-12.565 0-24.139 4.222-33.4 11.313-4.415-3.925-10.227-6.313-16.6-6.313-6.802 0-12.966 2.72-17.473 7.127-10.096-15.868-25.612-27.945-43.96-33.594-7.451-2.293-15.364-3.533-23.567-3.533-18.011 0-34.629 5.955-48 15.999-9.324 7.004-17.06 16.001-22.593 26.354-2.805-1.498-6.005-2.353-9.407-2.353-6.543 0-12.334 3.156-15.983 8.013-6.688-5.03-15.004-8.013-24.017-8.013-7.017 0-13.608 1.812-19.341 4.986-12.316 6.818-20.659 19.939-20.659 35.014h240l-.013-.503.025.005-.012.498h110c0-17.525-8.206-33.123-20.974-43.195z"/></svg>

<?xml version="1.0" encoding="utf-8"?>
<!-- Generator: Adobe Illustrator 17.1.0, SVG Export Plug-In . SVG Version: 6.00 Build 0)  -->
<!DOCTYPE svg PUBLIC "-//W3C//DTD SVG 1.1//EN" "http://www.w3.org/Graphics/SVG/1.1/DTD/svg11.dtd">
<svg version="1.1" id="Layer_1" xmlns="http://www.w3.org/2000/svg" xmlns:xlink="http://www.w3.org/1999/xlink" x="0px" y="0px"
	 width="350px" height="80px" viewBox="0 0 350 80" enable-background="new 0 0 350 80" xml:space="preserve">
<path fill="none" d="M240,79.5l0,0.5L240,79.5L240,79.5z"/>
<path opacity="0.1" fill="#FFFFFF" enable-background="new    " d="M64,48c3.6-4.9,9.4-8,16-8c3.4,0,6.6,0.9,9.4,2.4
	C94.9,32,102.7,23,112,16C104.7,6.3,93.1,0,80,0C61.3,0,45.7,12.8,41.2,30.1C40.8,30,40.4,30,40,30c-9.3,0-17.1,6.4-19.3,15
	c5.7-3.2,12.3-5,19.3-5C49,40,57.3,43,64,48z"/>
<path opacity="0.1" fill="#FFFFFF" enable-background="new    " d="M227.5,37.1C232,32.7,238.2,30,245,30c6.4,0,12.2,2.4,16.6,6.3
	C270.9,29.2,282.4,25,295,25c12.9,0,24.7,4.4,34,11.8C325.3,21.4,311.5,10,295,10c-11.8,0-22.3,5.9-28.6,14.9
	C261.7,21.8,256,20,250,20c-4.9,0-9.6,1.2-13.7,3.3C230,9.5,216.1,0,200,0c-5.9,0-11.4,1.3-16.4,3.5
	C201.9,9.2,217.4,21.3,227.5,37.1L227.5,37.1z"/>
<path opacity="0.3" fill="#FFFFFF" enable-background="new    " d="M329,36.8c-9.4-7.4-21.2-11.8-34-11.8
	c-12.6,0-24.1,4.2-33.4,11.3c-4.4-3.9-10.2-6.3-16.6-6.3c-6.8,0-13,2.7-17.5,7.1c-10.1-15.9-25.6-27.9-44-33.6
	C176.1,1.2,168.2,0,160,0c-18,0-34.6,6-48,16c-9.3,7-17.1,16-22.6,26.4c-2.8-1.5-6-2.4-9.4-2.4c-6.5,0-12.3,3.2-16,8
	c-6.7-5-15-8-24-8c-7,0-13.6,1.8-19.3,5C8.3,51.8,0,64.9,0,80h240l0-0.5l0,0l0,0.5h110C350,62.5,341.8,46.9,329,36.8z"/>
</svg>
